X: 96
T: The Boys of Bluehill
R:hornpipe
M:C|
K:D
AB|"D"BAFA D2FA|"G"BA (3Bcd "A"e2de|"D"faaf "A7"egfe|"D"dfed "G"B2dB|
"D"BAFA D2FA|"G"BA (3Bcd "A"e2de|"D"faaf "A7"egfe|"D"d2f2 d2:|
|:fg|"D"afdf a2gf|"A"efga "G"b2ag|"D"faaf "A7"egfe|"D"dfed "G"B2dB|
"D"BAFA D2FA|"G"BA (3Bcd "A"e2de|"D" faaf "A7"egfe|"D"d2f2 d2:|


